X:1
T:Title
%%score { ( 1 4 ) | ( 2 3 ) }
L:1/8
M:6/8
K:Db
V:1 treble nm="Grand Piano"
V:4 treble 
V:2 bass 
V:3 bass 
V:1
 z3 z2[Q:1/4=95] F | F2 F FED | [EG]2 [DF] [CE]2 [EG] | G2 G GFG |[M:5/8] [FA]2 [EG] [DF]2 | %5
[M:1/8] [FA] |[M:3/4] A2 AA Bc | [Fd]2 [GB] [FA]2 [_FB] | [Ec]2 [Ae] [=Ge]2 [GB] | A6 | %10
 [DFA]2 [DFA][A,DF]- [A,DF]/[A,EG]/[DFA] | B6 | B2 B[Bd]- [Bd]/[Ac]/[GB] | A6 | [Fd]2 [Fd]F GA | %15
[M:7/8] B2 B d3 B | A2 d e3 c |[M:5/8] d-[Gd-][_Fd-] [=Fd]2 |] %18
V:2
 z3 z2 [D,A,D] | z3 .A,3 | [C,A,]2 [D,A,] [A,,A,]2 [A,,A,] | [A,CE]2 [A,CE] [A,CE]2 [A,CE] | %4
[M:5/8] [D,C]2 [D,D] [D,A,]2 |[M:1/8] [D,D] |[M:3/4][K:treble] [A,CG]2 [A,CG][A,G]- [A,DG][A,EG] | %7
 [D,D]2 [D,D] [D,D]2 [D,A,] | [E,A,]2 [E,C] [E,B,]2 [E,D] | A,2- [A,-D] [A,E]3 | %10
 D,2 D,D,- D,/D,/D, | [G,DG][G,D] [G,D] [G,D]3 | [G,DG]2 [G,DG][G,D]- [G,D]/[G,D]/[G,D] | %13
 [D,D][D,D] [E,C] [D,D]3 | [D,A,]2 [D,A,]A,- [E,A,C][F,A,D] | %15
[M:7/8][K:treble] [G,DG]2 [G,DG] [=G,B,_F]3 [G,DF] | [A,DF]2 [A,DF] [A,CG]3 [A,EG] | %17
[M:5/8][K:bass] z B,=G, A,2 |] %18
V:3
 x6 | [D,A,D]2 [D,A,D] [D,D]-[D,G,D][D,F,] | x6 | x6 |[M:5/8] x5 |[M:1/8] x | %6
[M:3/4][K:treble] z2 z C z2 | x6 | x6 | C2 z2 z2 | x6 | x6 | x6 | x6 | z2 z [D,D] z2 | %15
[M:7/8][K:treble] x7 | x7 |[M:5/8][K:bass] D,-D,- D,3 |] %18
V:4
 x6 | x6 | x6 | x6 |[M:5/8] x5 |[M:1/8] x |[M:3/4] x6 | x6 | x6 | z2 F G3 | x6 | z G G G3 | x6 | %13
 FF G F3 | x6 |[M:7/8] x7 | x7 |[M:5/8] [DF] z z z2 |] %18

